app/dist/common/images/command-center.svg

<svg fill="none" height="18" viewBox="0 0 18 18" width="18" xmlns="http://www.w3.org/2000/svg"><path d="m0 0h18v18h-18z" fill="#f0f3fa"/><path clip-rule="evenodd" d="m5 4v2.22743l3.00001 1.77257v-4zm0 10v-4.5113l3 1.4246v3.0867zm8-10h-3v10h3z" fill="#193768" fill-rule="evenodd"/><path d="m8 7.9731-3 1.5269 3.78746 2.1982 5.21254-3.09863v-3.31418l-5.21254 3.19293z" fill="#74bd43"/></svg>

<!-- by TradingView --><svg width="18" height="18" viewBox="0 0 18 18" fill="none" xmlns="http://www.w3.org/2000/svg">
<rect width="18" height="18" fill="#F0F3FA"/>
<path fill-rule="evenodd" clip-rule="evenodd" d="M5 4V6.22743L8.00001 8V4H5ZM5 14V9.4887L8 10.9133V14H5ZM13 4H10V14H13V4Z" fill="#193768"/>
<path d="M8 7.9731L5 9.5L8.78746 11.6982L14 8.59957V5.28539L8.78746 8.47832L8 7.9731Z" fill="#74BD43"/>
</svg>
